app/assets/img/work/ttl-jci-sp.svg

<svg fill="none" height="21" viewBox="0 0 159 21" width="159" xmlns="http://www.w3.org/2000/svg"><path d="m11.998 12.798v7.202h-4.394v-7.202l-6.864-11.739h3.874c.38133 0 .68467.091.91.273.22533.17333.40733.39867.546.676l2.678 5.512c.21667.442.416.84933.598 1.222s.34233.741.481 1.105c.13-.37267.286-.74533.468-1.118s.377-.77567.585-1.209l2.652-5.512c.052-.11267.1213-.22533.208-.338.0953-.11267.1993-.21233.312-.299.1213-.09533.2557-.169.403-.221.156-.06067.325-.091.507-.091h3.9zm12.3417-6.487c1.0226 0 1.9543.16033 2.795.481.8406.32067 1.56.78 2.158 1.378.6066.598 1.0746 1.326 1.404 2.184.338.8493.507 1.807.507 2.873 0 1.0747-.169 2.0453-.507 2.912-.3294.858-.7974 1.5903-1.404 2.197-.598.598-1.3174 1.0617-2.158 1.391-.8407.3207-1.7724.481-2.795.481-1.0314 0-1.9717-.1603-2.821-.481-.8407-.3293-1.5687-.793-2.184-1.391-.6067-.6067-1.079-1.339-1.417-2.197-.3294-.8667-.494-1.8373-.494-2.912 0-1.066.1646-2.0237.494-2.873.338-.858.8103-1.586 1.417-2.184.6153-.598 1.3433-1.05733 2.184-1.378.8493-.32067 1.7896-.481 2.821-.481zm0 10.907c.9273 0 1.6076-.325 2.041-.975.442-.6587.663-1.6553.663-2.99s-.221-2.327-.663-2.977c-.4334-.65-1.1137-.975-2.041-.975-.9534 0-1.651.325-2.093.975s-.663 1.6423-.663 2.977.221 2.3313.663 2.99c.442.65 1.1396.975 2.093.975zm13.366-16.679001v10.907001h.598c.2513 0 .442-.0347.572-.104.1387-.0693.2687-.195.39-.377l2.548-3.796c.1473-.22533.3207-.39.52-.494.208-.104.468-.156.78-.156h3.692l-3.484 4.797c-.1647.2253-.3467.4247-.546.598-.1907.1733-.3987.3293-.624.468.39.2947.728.6847 1.014 1.17l3.796 6.448h-3.64c-.3033 0-.5677-.0477-.793-.143-.2167-.104-.3943-.2817-.533-.533l-2.548-4.771c-.1213-.2167-.247-.3553-.377-.416-.13-.0693-.325-.104-.585-.104h-.78v5.967h-4.03v-19.461001zm16.4294 5.772001c1.0226 0 1.9543.16033 2.795.481.8406.32067 1.56.78 2.158 1.378.6066.598 1.0746 1.326 1.404 2.184.338.8493.507 1.807.507 2.873 0 1.0747-.169 2.0453-.507 2.912-.3294.858-.7974 1.5903-1.404 2.197-.598.598-1.3174 1.0617-2.158 1.391-.8407.3207-1.7724.481-2.795.481-1.0314 0-1.9717-.1603-2.821-.481-.8407-.3293-1.5687-.793-2.184-1.391-.6067-.6067-1.079-1.339-1.417-2.197-.3294-.8667-.494-1.8373-.494-2.912 0-1.066.1646-2.0237.494-2.873.338-.858.8103-1.586 1.417-2.184.6153-.598 1.3433-1.05733 2.184-1.378.8493-.32067 1.7896-.481 2.821-.481zm0 10.907c.9273 0 1.6076-.325 2.041-.975.442-.6587.663-1.6553.663-2.99s-.221-2.327-.663-2.977c-.4334-.65-1.1137-.975-2.041-.975-.9534 0-1.651.325-2.093.975s-.663 1.6423-.663 2.977.221 2.3313.663 2.99c.442.65 1.1396.975 2.093.975zm17.578-7.748c-.104.16467-.2167.28167-.338.351-.1127.06933-.26.104-.442.104-.1907 0-.3813-.039-.572-.117-.1907-.08667-.3987-.17767-.624-.273-.2167-.09533-.4637-.182-.741-.26-.2773-.08667-.5937-.13-.949-.13-.5113 0-.9057.09967-1.183.299-.2687.19067-.403.45933-.403.806 0 .2513.0867.4593.26.624.182.1647.4203.312.715.442.2947.1213.6283.2383 1.001.351s.754.2383 1.144.377.7713.3033 1.144.494c.3727.182.7063.4117 1.001.689.2947.2687.5287.598.702.988.182.39.273.858.273 1.404 0 .6673-.1213 1.2827-.364 1.846s-.6067 1.0487-1.092 1.456c-.4767.4073-1.0703.7237-1.781.949-.702.2253-1.5123.338-2.431.338-.4593 0-.9187-.0433-1.378-.13s-.9057-.2037-1.339-.351c-.4247-.1473-.819-.3207-1.183-.52-.364-.208-.676-.429-.936-.663l.936-1.482c.1127-.1733.247-.3077.403-.403.156-.104.3597-.156.611-.156.234 0 .442.052.624.156.1907.104.3943.2167.611.338s.468.234.754.338c.2947.104.663.156 1.105.156.312 0 .5763-.0303.793-.091.2167-.0693.39-.1603.52-.273s.2253-.2383.286-.377.091-.2817.091-.429c0-.2687-.091-.4897-.273-.663s-.4203-.3207-.715-.442c-.2947-.13-.6327-.247-1.014-.351-.3727-.1127-.754-.2383-1.144-.377s-.7757-.3033-1.157-.494c-.3727-.1993-.7063-.4463-1.001-.741-.2947-.3033-.533-.6717-.715-1.105s-.273-.9577-.273-1.573c0-.572.1083-1.11367.325-1.625.2253-.52.559-.975 1.001-1.365s.9967-.69767 1.664-.923c.6673-.234 1.4473-.351 2.34-.351.4853 0 .9533.04333 1.404.13.4593.08667.8883.208 1.287.364s.7627.34233 1.092.559c.3293.208.6197.43767.871.689zm7.2392-2.951v8.554c0 .6673.1516 1.183.455 1.547.3033.364.7496.546 1.339.546.442 0 .8536-.091 1.235-.273.39-.182.767-.4377 1.131-.767v-9.607h4.03v13.481h-2.496c-.5027 0-.832-.2253-.988-.676l-.247-.78c-.26.2513-.5287.481-.806.689-.2774.1993-.5764.3727-.897.52-.312.1387-.65.247-1.014.325-.364.0867-.7627.13-1.196.13-.7367 0-1.391-.1257-1.963-.377-.5634-.26-1.04-.6197-1.43-1.079s-.6847-1.001-.884-1.625c-.1994-.624-.299-1.3087-.299-2.054v-8.554zm15.602-5.980001v10.907001h.598c.2513 0 .442-.0347.572-.104.1387-.0693.2687-.195.39-.377l2.548-3.796c.1473-.22533.3207-.39.52-.494.208-.104.468-.156.78-.156h3.6917l-3.484 4.797c-.164.2253-.3464.4247-.5457.598-.1907.1733-.3987.3293-.624.468.39.2947.728.6847 1.0137 1.17l3.796 6.448h-3.64c-.303 0-.5674-.0477-.7927-.143-.2167-.104-.3943-.2817-.533-.533l-2.548-4.771c-.1213-.2167-.247-.3553-.377-.416-.13-.0693-.325-.104-.585-.104h-.78v5.967h-4.03v-19.461001zm20.5187 19.461001c-.382 0-.672-.052-.871-.156-.191-.104-.351-.3207-.481-.65l-.286-.741c-.338.286-.663.5373-.975.754s-.637.403-.975.559c-.33.1473-.685.2557-1.066.325-.373.078-.789.117-1.248.117-.616 0-1.175-.078-1.677-.234-.503-.1647-.932-.403-1.287-.715-.347-.312-.616-.6977-.806-1.157-.191-.468-.286-1.0053-.286-1.612 0-.4767.121-.9663.364-1.469.242-.5027.663-.9577 1.261-1.365.598-.416 1.404-.7627 2.418-1.04s2.292-.4333 3.835-.468v-.572c0-.7887-.165-1.3563-.494-1.703-.321-.35533-.78-.533-1.378-.533-.477 0-.867.052-1.17.156-.304.104-.577.221-.819.351-.234.13-.464.247-.689.351-.226.104-.494.156-.806.156-.278 0-.516-.065-.715-.195-.191-.1387-.343-.30767-.455-.507l-.728-1.261c.814-.71933 1.716-1.25233 2.704-1.599.996-.35533 2.062-.533 3.198-.533.814 0 1.547.13433 2.197.403.658.26 1.213.62833 1.664 1.105.459.468.81 1.027 1.053 1.677.242.65.364 1.3607.364 2.132v8.424zm-4.628-2.457c.52 0 .975-.091 1.365-.273s.784-.4767 1.183-.884v-1.872c-.806.0347-1.469.104-1.989.208s-.932.234-1.235.39c-.304.156-.516.3337-.637.533-.113.1993-.169.416-.169.65 0 .4593.125.7843.377.975.251.182.619.273 1.105.273zm22.943-4.407c0 1.0573-.135 2.0193-.403 2.886-.26.8667-.659 1.612-1.196 2.236-.529.6153-1.196 1.0963-2.002 1.443-.806.338-1.755.507-2.847.507-.494 0-.984-.026-1.469-.078-.477-.052-.975-.1387-1.495-.26l.234-2.561c.017-.2253.104-.4073.26-.546.164-.1387.39-.208.676-.208.147 0 .329.026.546.078.216.0433.476.065.78.065.424 0 .793-.0563 1.105-.169.32-.1213.585-.3163.793-.585.208-.2773.364-.637.468-1.079s.156-.988.156-1.638v-12.168h4.394zm16.099 1.963c.104 0 .208.0217.312.065.104.0347.203.0997.299.195l1.742 1.833c-.763.9967-1.721 1.7507-2.873 2.262-1.144.5027-2.501.754-4.069.754-1.439 0-2.73-.2427-3.874-.728-1.136-.494-2.102-1.17-2.899-2.028-.789-.8667-1.396-1.8893-1.82-3.068-.425-1.1873-.637-2.4743-.637-3.861 0-1.41267.242-2.70833.728-3.887.485-1.18733 1.161-2.21 2.028-3.068.875-.858 1.919-1.52533 3.133-2.002 1.213-.47667 2.552-.715001 4.017-.715001.71 0 1.378.065 2.002.195001.632.12133 1.222.29467 1.768.52.546.21667 1.048.481 1.508.793.459.30333.866.64133 1.222 1.014l-1.482 1.989c-.096.12133-.208.234-.338.338-.13.09533-.312.143-.546.143-.156 0-.304-.03467-.442-.104-.139-.06933-.286-.15167-.442-.247-.156-.104-.33-.21233-.52-.325-.182-.12133-.403-.22967-.663-.325-.252-.104-.551-.19067-.897-.26-.338-.06933-.737-.104-1.196-.104-.798 0-1.526.143-2.184.429-.659.27733-1.227.68033-1.703 1.209-.468.52-.837 1.15267-1.105 1.898-.26.74533-.39 1.58167-.39 2.509 0 .9707.13 1.833.39 2.587.268.754.628 1.391 1.079 1.911.459.5113.992.9013 1.599 1.17.606.2687 1.256.403 1.95.403.398 0 .762-.0173 1.092-.052.329-.0433.632-.1127.91-.208.286-.0953.554-.2167.806-.364.26-.156.52-.3467.78-.572.104-.0867.216-.156.338-.208.121-.0607.247-.091.377-.091zm9.431 4.901h-4.42v-18.941h4.42z" fill="#121111"/></svg>

<svg width="159" height="21" viewBox="0 0 159 21" fill="none" xmlns="http://www.w3.org/2000/svg">
<path d="M11.998 12.798V20H7.604V12.798L0.74 1.059H4.614C4.99533 1.059 5.29867 1.15 5.524 1.332C5.74933 1.50533 5.93133 1.73067 6.07 2.008L8.748 7.52C8.96467 7.962 9.164 8.36933 9.346 8.742C9.528 9.11467 9.68833 9.483 9.827 9.847C9.957 9.47433 10.113 9.10167 10.295 8.729C10.477 8.35633 10.672 7.95333 10.88 7.52L13.532 2.008C13.584 1.89533 13.6533 1.78267 13.74 1.67C13.8353 1.55733 13.9393 1.45767 14.052 1.371C14.1733 1.27567 14.3077 1.202 14.455 1.15C14.611 1.08933 14.78 1.059 14.962 1.059H18.862L11.998 12.798ZM24.3397 6.311C25.3623 6.311 26.294 6.47133 27.1347 6.792C27.9753 7.11267 28.6947 7.572 29.2927 8.17C29.8993 8.768 30.3673 9.496 30.6967 10.354C31.0347 11.2033 31.2037 12.161 31.2037 13.227C31.2037 14.3017 31.0347 15.2723 30.6967 16.139C30.3673 16.997 29.8993 17.7293 29.2927 18.336C28.6947 18.934 27.9753 19.3977 27.1347 19.727C26.294 20.0477 25.3623 20.208 24.3397 20.208C23.3083 20.208 22.368 20.0477 21.5187 19.727C20.678 19.3977 19.95 18.934 19.3347 18.336C18.728 17.7293 18.2557 16.997 17.9177 16.139C17.5883 15.2723 17.4237 14.3017 17.4237 13.227C17.4237 12.161 17.5883 11.2033 17.9177 10.354C18.2557 9.496 18.728 8.768 19.3347 8.17C19.95 7.572 20.678 7.11267 21.5187 6.792C22.368 6.47133 23.3083 6.311 24.3397 6.311ZM24.3397 17.218C25.267 17.218 25.9473 16.893 26.3807 16.243C26.8227 15.5843 27.0437 14.5877 27.0437 13.253C27.0437 11.9183 26.8227 10.926 26.3807 10.276C25.9473 9.626 25.267 9.301 24.3397 9.301C23.3863 9.301 22.6887 9.626 22.2467 10.276C21.8047 10.926 21.5837 11.9183 21.5837 13.253C21.5837 14.5877 21.8047 15.5843 22.2467 16.243C22.6887 16.893 23.3863 17.218 24.3397 17.218ZM37.7057 0.538999V11.446H38.3037C38.555 11.446 38.7457 11.4113 38.8757 11.342C39.0144 11.2727 39.1444 11.147 39.2657 10.965L41.8137 7.169C41.961 6.94367 42.1344 6.779 42.3337 6.675C42.5417 6.571 42.8017 6.519 43.1137 6.519H46.8057L43.3217 11.316C43.157 11.5413 42.975 11.7407 42.7757 11.914C42.585 12.0873 42.377 12.2433 42.1517 12.382C42.5417 12.6767 42.8797 13.0667 43.1657 13.552L46.9617 20H43.3217C43.0184 20 42.754 19.9523 42.5287 19.857C42.312 19.753 42.1344 19.5753 41.9957 19.324L39.4477 14.553C39.3264 14.3363 39.2007 14.1977 39.0707 14.137C38.9407 14.0677 38.7457 14.033 38.4857 14.033H37.7057V20H33.6757V0.538999H37.7057ZM54.1351 6.311C55.1577 6.311 56.0894 6.47133 56.9301 6.792C57.7707 7.11267 58.4901 7.572 59.0881 8.17C59.6947 8.768 60.1627 9.496 60.4921 10.354C60.8301 11.2033 60.9991 12.161 60.9991 13.227C60.9991 14.3017 60.8301 15.2723 60.4921 16.139C60.1627 16.997 59.6947 17.7293 59.0881 18.336C58.4901 18.934 57.7707 19.3977 56.9301 19.727C56.0894 20.0477 55.1577 20.208 54.1351 20.208C53.1037 20.208 52.1634 20.0477 51.3141 19.727C50.4734 19.3977 49.7454 18.934 49.1301 18.336C48.5234 17.7293 48.0511 16.997 47.7131 16.139C47.3837 15.2723 47.2191 14.3017 47.2191 13.227C47.2191 12.161 47.3837 11.2033 47.7131 10.354C48.0511 9.496 48.5234 8.768 49.1301 8.17C49.7454 7.572 50.4734 7.11267 51.3141 6.792C52.1634 6.47133 53.1037 6.311 54.1351 6.311ZM54.1351 17.218C55.0624 17.218 55.7427 16.893 56.1761 16.243C56.6181 15.5843 56.8391 14.5877 56.8391 13.253C56.8391 11.9183 56.6181 10.926 56.1761 10.276C55.7427 9.626 55.0624 9.301 54.1351 9.301C53.1817 9.301 52.4841 9.626 52.0421 10.276C51.6001 10.926 51.3791 11.9183 51.3791 13.253C51.3791 14.5877 51.6001 15.5843 52.0421 16.243C52.4841 16.893 53.1817 17.218 54.1351 17.218ZM71.7131 9.47C71.6091 9.63467 71.4964 9.75167 71.3751 9.821C71.2624 9.89033 71.1151 9.925 70.9331 9.925C70.7424 9.925 70.5518 9.886 70.3611 9.808C70.1704 9.72133 69.9624 9.63033 69.7371 9.535C69.5204 9.43967 69.2734 9.353 68.9961 9.275C68.7188 9.18833 68.4024 9.145 68.0471 9.145C67.5358 9.145 67.1414 9.24467 66.8641 9.444C66.5954 9.63467 66.4611 9.90333 66.4611 10.25C66.4611 10.5013 66.5478 10.7093 66.7211 10.874C66.9031 11.0387 67.1414 11.186 67.4361 11.316C67.7308 11.4373 68.0644 11.5543 68.4371 11.667C68.8098 11.7797 69.1911 11.9053 69.5811 12.044C69.9711 12.1827 70.3524 12.3473 70.7251 12.538C71.0978 12.72 71.4314 12.9497 71.7261 13.227C72.0208 13.4957 72.2548 13.825 72.4281 14.215C72.6101 14.605 72.7011 15.073 72.7011 15.619C72.7011 16.2863 72.5798 16.9017 72.3371 17.465C72.0944 18.0283 71.7304 18.5137 71.2451 18.921C70.7684 19.3283 70.1748 19.6447 69.4641 19.87C68.7621 20.0953 67.9518 20.208 67.0331 20.208C66.5738 20.208 66.1144 20.1647 65.6551 20.078C65.1958 19.9913 64.7494 19.8743 64.3161 19.727C63.8914 19.5797 63.4971 19.4063 63.1331 19.207C62.7691 18.999 62.4571 18.778 62.1971 18.544L63.1331 17.062C63.2458 16.8887 63.3801 16.7543 63.5361 16.659C63.6921 16.555 63.8958 16.503 64.1471 16.503C64.3811 16.503 64.5891 16.555 64.7711 16.659C64.9618 16.763 65.1654 16.8757 65.3821 16.997C65.5988 17.1183 65.8501 17.231 66.1361 17.335C66.4308 17.439 66.7991 17.491 67.2411 17.491C67.5531 17.491 67.8174 17.4607 68.0341 17.4C68.2508 17.3307 68.4241 17.2397 68.5541 17.127C68.6841 17.0143 68.7794 16.8887 68.8401 16.75C68.9008 16.6113 68.9311 16.4683 68.9311 16.321C68.9311 16.0523 68.8401 15.8313 68.6581 15.658C68.4761 15.4847 68.2378 15.3373 67.9431 15.216C67.6484 15.086 67.3104 14.969 66.9291 14.865C66.5564 14.7523 66.1751 14.6267 65.7851 14.488C65.3951 14.3493 65.0094 14.1847 64.6281 13.994C64.2554 13.7947 63.9218 13.5477 63.6271 13.253C63.3324 12.9497 63.0941 12.5813 62.9121 12.148C62.7301 11.7147 62.6391 11.1903 62.6391 10.575C62.6391 10.003 62.7474 9.46133 62.9641 8.95C63.1894 8.43 63.5231 7.975 63.9651 7.585C64.4071 7.195 64.9618 6.88733 65.6291 6.662C66.2964 6.428 67.0764 6.311 67.9691 6.311C68.4544 6.311 68.9224 6.35433 69.3731 6.441C69.8324 6.52767 70.2614 6.649 70.6601 6.805C71.0588 6.961 71.4228 7.14733 71.7521 7.364C72.0814 7.572 72.3718 7.80167 72.6231 8.053L71.7131 9.47ZM78.9523 6.519V15.073C78.9523 15.7403 79.1039 16.256 79.4073 16.62C79.7106 16.984 80.1569 17.166 80.7463 17.166C81.1883 17.166 81.5999 17.075 81.9813 16.893C82.3713 16.711 82.7483 16.4553 83.1123 16.126V6.519H87.1423V20H84.6463C84.1436 20 83.8143 19.7747 83.6583 19.324L83.4113 18.544C83.1513 18.7953 82.8826 19.025 82.6053 19.233C82.3279 19.4323 82.0289 19.6057 81.7083 19.753C81.3963 19.8917 81.0583 20 80.6943 20.078C80.3303 20.1647 79.9316 20.208 79.4983 20.208C78.7616 20.208 78.1073 20.0823 77.5353 19.831C76.9719 19.571 76.4953 19.2113 76.1053 18.752C75.7153 18.2927 75.4206 17.751 75.2213 17.127C75.0219 16.503 74.9223 15.8183 74.9223 15.073V6.519H78.9523ZM94.5543 0.538999V11.446H95.1523C95.4036 11.446 95.5943 11.4113 95.7243 11.342C95.863 11.2727 95.993 11.147 96.1143 10.965L98.6623 7.169C98.8096 6.94367 98.983 6.779 99.1823 6.675C99.3903 6.571 99.6503 6.519 99.9623 6.519H103.654L100.17 11.316C100.006 11.5413 99.8236 11.7407 99.6243 11.914C99.4336 12.0873 99.2256 12.2433 99.0003 12.382C99.3903 12.6767 99.7283 13.0667 100.014 13.552L103.81 20H100.17C99.867 20 99.6026 19.9523 99.3773 19.857C99.1606 19.753 98.983 19.5753 98.8443 19.324L96.2963 14.553C96.175 14.3363 96.0493 14.1977 95.9193 14.137C95.7893 14.0677 95.5943 14.033 95.3343 14.033H94.5543V20H90.5243V0.538999H94.5543ZM115.073 20C114.691 20 114.401 19.948 114.202 19.844C114.011 19.74 113.851 19.5233 113.721 19.194L113.435 18.453C113.097 18.739 112.772 18.9903 112.46 19.207C112.148 19.4237 111.823 19.61 111.485 19.766C111.155 19.9133 110.8 20.0217 110.419 20.091C110.046 20.169 109.63 20.208 109.171 20.208C108.555 20.208 107.996 20.13 107.494 19.974C106.991 19.8093 106.562 19.571 106.207 19.259C105.86 18.947 105.591 18.5613 105.401 18.102C105.21 17.634 105.115 17.0967 105.115 16.49C105.115 16.0133 105.236 15.5237 105.479 15.021C105.721 14.5183 106.142 14.0633 106.74 13.656C107.338 13.24 108.144 12.8933 109.158 12.616C110.172 12.3387 111.45 12.1827 112.993 12.148V11.576C112.993 10.7873 112.828 10.2197 112.499 9.873C112.178 9.51767 111.719 9.34 111.121 9.34C110.644 9.34 110.254 9.392 109.951 9.496C109.647 9.6 109.374 9.717 109.132 9.847C108.898 9.977 108.668 10.094 108.443 10.198C108.217 10.302 107.949 10.354 107.637 10.354C107.359 10.354 107.121 10.289 106.922 10.159C106.731 10.0203 106.579 9.85133 106.467 9.652L105.739 8.391C106.553 7.67167 107.455 7.13867 108.443 6.792C109.439 6.43667 110.505 6.259 111.641 6.259C112.455 6.259 113.188 6.39333 113.838 6.662C114.496 6.922 115.051 7.29033 115.502 7.767C115.961 8.235 116.312 8.794 116.555 9.444C116.797 10.094 116.919 10.8047 116.919 11.576V20H115.073ZM110.445 17.543C110.965 17.543 111.42 17.452 111.81 17.27C112.2 17.088 112.594 16.7933 112.993 16.386V14.514C112.187 14.5487 111.524 14.618 111.004 14.722C110.484 14.826 110.072 14.956 109.769 15.112C109.465 15.268 109.253 15.4457 109.132 15.645C109.019 15.8443 108.963 16.061 108.963 16.295C108.963 16.7543 109.088 17.0793 109.34 17.27C109.591 17.452 109.959 17.543 110.445 17.543ZM133.388 13.136C133.388 14.1933 133.253 15.1553 132.985 16.022C132.725 16.8887 132.326 17.634 131.789 18.258C131.26 18.8733 130.593 19.3543 129.787 19.701C128.981 20.039 128.032 20.208 126.94 20.208C126.446 20.208 125.956 20.182 125.471 20.13C124.994 20.078 124.496 19.9913 123.976 19.87L124.21 17.309C124.227 17.0837 124.314 16.9017 124.47 16.763C124.634 16.6243 124.86 16.555 125.146 16.555C125.293 16.555 125.475 16.581 125.692 16.633C125.908 16.6763 126.168 16.698 126.472 16.698C126.896 16.698 127.265 16.6417 127.577 16.529C127.897 16.4077 128.162 16.2127 128.37 15.944C128.578 15.6667 128.734 15.307 128.838 14.865C128.942 14.423 128.994 13.877 128.994 13.227V1.059H133.388V13.136ZM149.487 15.099C149.591 15.099 149.695 15.1207 149.799 15.164C149.903 15.1987 150.002 15.2637 150.098 15.359L151.84 17.192C151.077 18.1887 150.119 18.9427 148.967 19.454C147.823 19.9567 146.466 20.208 144.898 20.208C143.459 20.208 142.168 19.9653 141.024 19.48C139.888 18.986 138.922 18.31 138.125 17.452C137.336 16.5853 136.729 15.5627 136.305 14.384C135.88 13.1967 135.668 11.9097 135.668 10.523C135.668 9.11033 135.91 7.81467 136.396 6.636C136.881 5.44867 137.557 4.426 138.424 3.568C139.299 2.71 140.343 2.04267 141.557 1.566C142.77 1.08933 144.109 0.850999 145.574 0.850999C146.284 0.850999 146.952 0.915999 147.576 1.046C148.208 1.16733 148.798 1.34067 149.344 1.566C149.89 1.78267 150.392 2.047 150.852 2.359C151.311 2.66233 151.718 3.00033 152.074 3.373L150.592 5.362C150.496 5.48333 150.384 5.596 150.254 5.7C150.124 5.79533 149.942 5.843 149.708 5.843C149.552 5.843 149.404 5.80833 149.266 5.739C149.127 5.66967 148.98 5.58733 148.824 5.492C148.668 5.388 148.494 5.27967 148.304 5.167C148.122 5.04567 147.901 4.93733 147.641 4.842C147.389 4.738 147.09 4.65133 146.744 4.582C146.406 4.51267 146.007 4.478 145.548 4.478C144.75 4.478 144.022 4.621 143.364 4.907C142.705 5.18433 142.137 5.58733 141.661 6.116C141.193 6.636 140.824 7.26867 140.556 8.014C140.296 8.75933 140.166 9.59567 140.166 10.523C140.166 11.4937 140.296 12.356 140.556 13.11C140.824 13.864 141.184 14.501 141.635 15.021C142.094 15.5323 142.627 15.9223 143.234 16.191C143.84 16.4597 144.49 16.594 145.184 16.594C145.582 16.594 145.946 16.5767 146.276 16.542C146.605 16.4987 146.908 16.4293 147.186 16.334C147.472 16.2387 147.74 16.1173 147.992 15.97C148.252 15.814 148.512 15.6233 148.772 15.398C148.876 15.3113 148.988 15.242 149.11 15.19C149.231 15.1293 149.357 15.099 149.487 15.099ZM158.918 20H154.498V1.059H158.918V20Z" fill="#121111"/>
</svg>
